src/assets/airlines/garuda-indonesia.svg

<svg xmlns="http://www.w3.org/2000/svg" height="800" width="1200" id="svg9594" version="1.1" xml:space="preserve" clip-rule="evenodd" fill-rule="evenodd" image-rendering="optimizeQuality" shape-rendering="geometricPrecision" text-rendering="geometricPrecision" viewBox="-4349.7396 -1335.2635 37697.7432 8011.581"><defs id="defs9546"><style id="style9544" type="text/css">.fil0{fill-rule:nonzero}.fil1{fill:#202d5c}.fil1,.fil2{fill-rule:nonzero}.fil0{fill:#358e9d}.fil2{fill:#474343}</style></defs><g transform="translate(0 .054)" id="Layer_x0020_1"><g id="layer1"><g id="g7026"><g id="g6656"><path d="M24222 2222c-582-304-1065-327-1291-327h-786l-42-74h924c64 0 830-11 1281 110 564 151 954 447 1030 497 76 49 1105 786 1105 786s-173 177-342 177c-160 0-333-123-333-123s-551-397-635-456-519-383-912-589z" class="fil0" id="path6658"/></g><g id="g6660"><path d="M24180 2803c389 258 618 447 693 501 74 54 420 301 420 301s159 124 354 124c148 0 330-172 330-172s-826-583-901-635c-75-53-340-262-834-392-413-109-1000-106-1039-106h-752l44 76s567 1 610 1c91 0 665 28 1075 300z" class="fil0" id="path6662"/></g><g id="g6664"><path d="M24307 1613c501 269 997 641 1089 708 93 67 846 606 846 606s176 119 337 119c157 0 335-174 335-174s-1202-865-1310-941-541-431-1236-596c-544-138-1452-122-1515-122h-1100l44 76h960c199 0 966 10 1549 324z" class="fil0" id="path6666"/></g><g id="g6668"><path d="M28663 1601c-148-26-343-38-343-38l-266 76-152-127s317 25 405 38c76 0 51-38 12-115-38-76-126-76-126-76h-799s-143 1-307-37c-165-38-230-162-230-162-64 147 190 318 190 318l791 567c102 64 190 13 190 13s203-102 317-127c102-25 418-38 456-25 89 13 190 102 190 102 51-356-178-379-329-407z" class="fil1" id="path6670"/></g><g id="g6672"><path d="M24463 426c551 242 1339 831 1454 915 116 84 1251 897 1251 897s178 127 343 127 328-166 328-166-1604-1153-1720-1236-648-531-1637-792C23805-8 22641 0 22506 0h-1452l45 77h1331c336 0 1305 28 2034 349z" class="fil1" id="path6674"/></g><g id="g6676"><path d="M24379 1018c-595-298-1329-335-1756-335h-1175l-44-76h1277c138 0 1105-10 1745 135 738 168 1373 652 1439 698 63 44 1520 1089 1520 1089s-166 171-345 171c-164 0-342-127-342-127s-948-680-1040-745c-91-65-725-534-1279-811z" class="fil1" id="path6678"/></g><g id="g6680"><path d="M3053 4395s-89-20-197-20c-240 0-418 106-467 266-11 30-14 97-14 131 0 203 142 317 316 317 33 0 88-8 135-26 125-46 227-130 227-258zm165 908c-16 0-86 4-115-29-28-26-28-65-28-97v-102c-105 155-282 260-548 254-418-12-510-340-510-521 0-64 6-186 101-316 148-208 455-276 729-276 117 0 206 17 206 17v-183c0-65 0-176-65-254-56-65-159-114-342-114-285 0-472 161-472 161l34-216s193-131 503-131c259 0 438 71 543 177 121 126 151 242 151 474v1156z" class="fil2" id="path6682"/></g><g id="g6684"><path d="M4370 3738c-300 57-333 294-333 461v1104h-352V3725c0-152-100-184-100-184h348c77 0 104 43 104 91v96c11-32 137-200 370-208 76-3 163 4 210 32l46 222c-52-29-150-64-294-37z" class="fil2" id="path6686"/></g><g id="g6688"><path d="M6059 5303c-12 0-85 4-118-29-26-26-26-74-26-97v-102c-95 155-266 253-501 253-184 0-309-42-418-160-115-128-144-287-144-502v-967c0-125-108-158-105-157h328c81 0 130 41 130 102v1062c0 314 93 403 313 403 181 0 378-122 378-309V3543h349v1761h-185z" class="fil2" id="path6690"/></g><g id="g6692"><path d="M10878 5303c-73 0-117-31-117-120V3105c0-131-101-181-101-181h340c101 0 146 49 146 122v2258h-270z" class="fil2" id="path6694"/></g><g id="g6696"><path d="M15674 3688c-355-4-417 362-417 752 0 485 122 717 417 717 260 0 382-300 382-717 0-340-32-748-382-752m-7 1641c-576-3-783-360-783-897 0-490 207-931 783-928 583 4 761 444 761 928 0 495-280 901-761 897z" class="fil2" id="path6698"/></g><g id="g6700"><path d="M20929 5175c-125 106-290 158-474 160h-19c-276 0-427-74-493-112l-50-209s241 158 492 158c242 0 380-130 364-345-25-343-819-261-819-829 0-312 254-476 566-480h20c322 0 441 113 441 113l49 195s-138-136-414-136c-297 0-326 238-320 304 19 171 149 212 382 314 243 104 435 238 435 496 0 164-63 290-158 371z" class="fil2" id="path6702"/></g><g id="g6704"><path d="M21405 5303c-65 0-100-34-100-92V3700c0-116-110-158-110-158h359c72 0 100 38 100 105v1656z" class="fil2" id="path6706"/></g><g id="g6708"><path d="M11746 3542c67 0 101 32 101 91v138c96-156 267-255 501-255 184 0 309 42 418 161 115 129 144 287 144 503v1124h-210c-90 0-142-61-142-145V4142c0-314-94-403-312-403-181 0-379 122-379 310v1256h-349V3696c0-124-97-152-97-152h326z" class="fil2" id="path6710"/></g><g id="g6712"><path d="M22919 4395s-89-20-198-20c-240 0-418 106-467 266-11 30-13 97-13 131 0 203 141 317 316 317 33 0 89-8 135-26 125-46 227-130 227-258zm165 908c-17 0-85 4-116-29-25-26-25-65-25-97v-102c-106 155-284 260-550 254-418-12-509-340-509-521 0-64 5-186 102-316 147-208 454-276 727-276 119 0 208 17 208 17v-183c0-65 10-168-63-255-53-67-165-115-355-113-326 6-461 161-461 161l35-216s192-131 502-131c259 0 437 71 542 177 122 126 151 242 151 474v1156h-187z" class="fil2" id="path6714"/></g><g id="g6716"><path d="M7606 4135c0-100-13-246-93-330-56-59-144-100-270-100-342 0-381 455-381 700v26c3 347 102 691 388 691 155 0 263-60 356-177v-811zm109 1168c-69 0-93-23-93-87v-87c-132 118-260 196-453 199h-7c-503 0-678-425-678-897 0-354 136-928 695-928 335 0 428 202 428 202v-600c0-126-104-191-104-191h273c105 0 183 73 183 152v2237h-243z" class="fil2" id="path6718"/></g><g id="g6720"><path d="M9250 4395s-88-20-197-20c-240 0-418 106-467 266-10 30-14 97-14 131 0 203 141 317 316 317 33 0 89-8 135-26 125-46 227-130 227-258zm164 908c-16 0-86 4-115-29-27-26-27-65-27-97v-102c-105 155-282 260-549 254-417-12-510-340-510-521 0-64 6-186 102-316 148-208 454-276 728-276 119 0 207 17 207 17v-183c0-65 0-176-65-254-55-65-159-114-341-114-285 0-473 161-473 161l35-216s193-131 502-131c260 0 438 71 543 177 121 126 151 242 151 474v1156z" class="fil2" id="path6722"/></g><g id="g6724"><path d="M14287 4135c0-100-13-246-92-330-55-59-144-100-270-100-342 0-382 455-382 700v26c4 347 102 691 389 691 156 0 262-60 355-177v-811zm110 1168c-69 0-94-23-94-87v-87c-131 118-260 196-454 199h-9c-500 0-675-425-675-897 0-354 135-928 694-928 335 0 427 202 427 202v-600c0-126-103-191-103-191h274c105 0 182 73 182 152v2237z" class="fil2" id="path6726"/></g><g id="g6728"><path d="M16904 3542c68 0 102 32 102 91v138c95-156 266-255 501-255 184 0 308 42 417 161 115 129 145 287 145 503v1124h-211c-89 0-141-61-141-145V4142c0-314-94-403-313-403-181 0-378 122-378 310v1256h-350V3696c0-124-97-152-97-152h324z" class="fil2" id="path6730"/></g><g id="g6732"><path d="M1454 5315c-142 19-227 26-365 26-362 0-592-109-767-280C66 4807 0 4385 0 4121c0-213 36-631 378-953 158-148 404-274 773-274 329 0 487 94 487 94l61 218c-13-6-183-104-466-104-581 0-825 399-825 1020 0 939 457 1013 716 1013 184 0 258-29 258-29v-933h-202c-136 0-194 21-194 21l29-189h746v1243c-122 32-187 51-309 67z" class="fil2" id="path6734"/></g><g id="g6736"><path d="M18683 4423s89 19 198 19c391 0 480-192 498-414 15-198-38-395-344-357-278 35-352 216-352 442 0 187 1 310 1 310m526-926c417 30 510 341 510 521 0 65-6 187-102 316-148 209-454 276-727 276-119 0-207-16-207-16v163c0 308 164 391 435 387 303-4 543-191 543-191l-34 216s-275 160-585 160c-260 0-456-69-560-177-129-134-151-314-151-546v-385c0-328 135-777 878-724z" class="fil2" id="path6738"/></g></g></g></g></svg>

<?xml version="1.0" encoding="UTF-8" standalone="no"?>
<!DOCTYPE svg PUBLIC "-//W3C//DTD SVG 1.1//EN" "http://www.w3.org/Graphics/SVG/1.1/DTD/svg11.dtd">
<svg width="100%" height="100%" viewBox="0 0 934 178" version="1.1" xmlns="http://www.w3.org/2000/svg" xmlns:xlink="http://www.w3.org/1999/xlink" xml:space="preserve" xmlns:serif="http://www.serif.com/" style="fill-rule:evenodd;clip-rule:evenodd;stroke-linejoin:round;stroke-miterlimit:2;">
    <g id="Artboard1" transform="matrix(0.778333,0,0,0.2225,0,0)">
        <rect x="0" y="0" width="1200" height="800" style="fill:none;"/>
        <g id="Layer_x0020_1" transform="matrix(0.040898,0,0,0.143066,7.016966,17.946599)">
            <g id="layer1">
                <g id="g7026">
                    <g id="g6656">
                        <path id="path6658" d="M24222,2222C23640,1918 23157,1895 22931,1895L22145,1895L22103,1821L23027,1821C23091,1821 23857,1810 24308,1931C24872,2082 25262,2378 25338,2428C25414,2477 26443,3214 26443,3214C26443,3214 26270,3391 26101,3391C25941,3391 25768,3268 25768,3268C25768,3268 25217,2871 25133,2812C25049,2753 24614,2429 24221,2223L24222,2222Z" style="fill:rgb(73,153,167);"/>
                    </g>
                    <g id="g6660">
                        <path id="path6662" d="M24180,2803C24569,3061 24798,3250 24873,3304C24947,3358 25293,3605 25293,3605C25293,3605 25452,3729 25647,3729C25795,3729 25977,3557 25977,3557C25977,3557 25151,2974 25076,2922C25001,2869 24736,2660 24242,2530C23829,2421 23242,2424 23203,2424L22451,2424L22495,2500C22495,2500 23062,2501 23105,2501C23196,2501 23770,2529 24180,2801L24180,2803Z" style="fill:rgb(73,153,167);"/>
                    </g>
                    <g id="g6664">
                        <path id="path6666" d="M24307,1613C24808,1882 25304,2254 25396,2321C25489,2388 26242,2927 26242,2927C26242,2927 26418,3046 26579,3046C26736,3046 26914,2872 26914,2872C26914,2872 25712,2007 25604,1931C25496,1855 25063,1500 24368,1335C23824,1197 22916,1213 22853,1213L21753,1213L21797,1289L22757,1289C22956,1289 23723,1299 24306,1613L24307,1613Z" style="fill:rgb(73,153,167);"/>
                    </g>
                    <g id="g6668">
                        <path id="path6670" d="M28663,1601C28515,1575 28320,1563 28320,1563L28054,1639L27902,1512C27902,1512 28219,1537 28307,1550C28383,1550 28358,1512 28319,1435C28281,1359 28193,1359 28193,1359L27394,1359C27394,1359 27251,1360 27087,1322C26922,1284 26857,1160 26857,1160C26793,1307 27047,1478 27047,1478L27838,2045C27940,2109 28028,2058 28028,2058C28028,2058 28231,1956 28345,1931C28447,1906 28763,1893 28801,1906C28890,1919 28991,2008 28991,2008C29042,1652 28813,1629 28662,1601L28663,1601Z" style="fill:rgb(48,61,106);"/>
                    </g>
                    <g id="g6672">
                        <path id="path6674" d="M24463,426C25014,668 25802,1257 25917,1341C26033,1425 27168,2238 27168,2238C27168,2238 27346,2365 27511,2365C27676,2365 27839,2199 27839,2199C27839,2199 26235,1046 26119,963C26003,880 25471,432 24482,171C23805,-8 22641,0 22506,0L21054,0L21099,77L22430,77C22766,77 23735,105 24464,426L24463,426Z" style="fill:rgb(48,61,106);"/>
                    </g>
                    <g id="g6676">
                        <path id="path6678" d="M24379,1018C23784,720 23050,683 22623,683L21448,683L21404,607L22681,607C22819,607 23786,597 24426,742C25164,910 25799,1394 25865,1440C25928,1484 27385,2529 27385,2529C27385,2529 27219,2700 27040,2700C26876,2700 26698,2573 26698,2573C26698,2573 25750,1893 25658,1828C25567,1763 24933,1294 24379,1017L24379,1018Z" style="fill:rgb(48,61,106);"/>
                    </g>
                    <g id="g6680">
                        <path id="path6682" d="M3053,4395C3053,4395 2964,4375 2856,4375C2616,4375 2438,4481 2389,4641C2378,4671 2375,4738 2375,4772C2375,4975 2517,5089 2691,5089C2724,5089 2779,5081 2826,5063C2951,5017 3053,4933 3053,4805L3053,4395ZM3218,5303C3202,5303 3132,5307 3103,5274C3075,5248 3075,5209 3075,5177L3075,5075C2970,5230 2793,5335 2527,5329C2109,5317 2017,4989 2017,4808C2017,4744 2023,4622 2118,4492C2266,4284 2573,4216 2847,4216C2964,4216 3053,4233 3053,4233L3053,4050C3053,3985 3053,3874 2988,3796C2932,3731 2829,3682 2646,3682C2361,3682 2174,3843 2174,3843L2208,3627C2208,3627 2401,3496 2711,3496C2970,3496 3149,3567 3254,3673C3375,3799 3405,3915 3405,4147L3405,5303L3218,5303Z" style="fill:rgb(86,82,82);"/>
                    </g>
                    <g id="g6684">
                        <path id="path6686" d="M4370,3738C4070,3795 4037,4032 4037,4199L4037,5303L3685,5303L3685,3725C3685,3573 3585,3541 3585,3541L3933,3541C4010,3541 4037,3584 4037,3632L4037,3728C4048,3696 4174,3528 4407,3520C4483,3517 4570,3524 4617,3552L4663,3774C4611,3745 4513,3710 4369,3737L4370,3738Z" style="fill:rgb(86,82,82);"/>
                    </g>
                    <g id="g6688">
                        <path id="path6690" d="M6059,5303C6047,5303 5974,5307 5941,5274C5915,5248 5915,5200 5915,5177L5915,5075C5820,5230 5649,5328 5414,5328C5230,5328 5105,5286 4996,5168C4881,5040 4852,4881 4852,4666L4852,3699C4852,3574 4744,3541 4747,3542L5075,3542C5156,3542 5205,3583 5205,3644L5205,4706C5205,5020 5298,5109 5518,5109C5699,5109 5896,4987 5896,4800L5896,3543L6245,3543L6245,5304L6060,5304L6059,5303Z" style="fill:rgb(86,82,82);"/>
                    </g>
                    <g id="g6692">
                        <path id="path6694" d="M10878,5303C10805,5303 10761,5272 10761,5183L10761,3105C10761,2974 10660,2924 10660,2924L11000,2924C11101,2924 11146,2973 11146,3046L11146,5304L10876,5304L10878,5303Z" style="fill:rgb(86,82,82);"/>
                    </g>
                    <g id="g6696">
                        <path id="path6698" d="M15674,3688C15319,3684 15257,4050 15257,4440C15257,4925 15379,5157 15674,5157C15934,5157 16056,4857 16056,4440C16056,4100 16024,3692 15674,3688M15667,5329C15091,5326 14884,4969 14884,4432C14884,3942 15091,3501 15667,3504C16250,3508 16428,3948 16428,4432C16428,4927 16148,5333 15667,5329Z" style="fill:rgb(86,82,82);"/>
                    </g>
                    <g id="g6700">
                        <path id="path6702" d="M20929,5175C20804,5281 20639,5333 20455,5335L20436,5335C20160,5335 20009,5261 19943,5223L19893,5014C19893,5014 20134,5172 20385,5172C20627,5172 20765,5042 20749,4827C20724,4484 19930,4566 19930,3998C19930,3686 20184,3522 20496,3518L20516,3518C20838,3518 20957,3631 20957,3631L21006,3826C21006,3826 20868,3690 20592,3690C20295,3690 20266,3928 20272,3994C20291,4165 20421,4206 20654,4308C20897,4412 21089,4546 21089,4804C21089,4968 21026,5094 20931,5175L20929,5175Z" style="fill:rgb(86,82,82);"/>
                    </g>
                    <g id="g6704">
                        <path id="path6706" d="M21405,5303C21340,5303 21305,5269 21305,5211L21305,3700C21305,3584 21195,3542 21195,3542L21554,3542C21626,3542 21654,3580 21654,3647L21654,5303L21405,5303Z" style="fill:rgb(86,82,82);"/>
                    </g>
                    <g id="g6708">
                        <path id="path6710" d="M11746,3542C11813,3542 11847,3574 11847,3633L11847,3771C11943,3615 12114,3516 12348,3516C12532,3516 12657,3558 12766,3677C12881,3806 12910,3964 12910,4180L12910,5304L12700,5304C12610,5304 12558,5243 12558,5159L12558,4142C12558,3828 12464,3739 12246,3739C12065,3739 11867,3861 11867,4049L11867,5305L11518,5305L11518,3696C11518,3572 11421,3544 11421,3544L11747,3544L11746,3542Z" style="fill:rgb(86,82,82);"/>
                    </g>
                    <g id="g6712">
                        <path id="path6714" d="M22919,4395C22919,4395 22830,4375 22721,4375C22481,4375 22303,4481 22254,4641C22243,4671 22241,4738 22241,4772C22241,4975 22382,5089 22557,5089C22590,5089 22646,5081 22692,5063C22817,5017 22919,4933 22919,4805L22919,4395ZM23084,5303C23067,5303 22999,5307 22968,5274C22943,5248 22943,5209 22943,5177L22943,5075C22837,5230 22659,5335 22393,5329C21975,5317 21884,4989 21884,4808C21884,4744 21889,4622 21986,4492C22133,4284 22440,4216 22713,4216C22832,4216 22921,4233 22921,4233L22921,4050C22921,3985 22931,3882 22858,3795C22805,3728 22693,3680 22503,3682C22177,3688 22042,3843 22042,3843L22077,3627C22077,3627 22269,3496 22579,3496C22838,3496 23016,3567 23121,3673C23243,3799 23272,3915 23272,4147L23272,5303L23084,5303Z" style="fill:rgb(86,82,82);"/>
                    </g>
                    <g id="g6716">
                        <path id="path6718" d="M7606,4135C7606,4035 7593,3889 7513,3805C7457,3746 7369,3705 7243,3705C6901,3705 6862,4160 6862,4405L6862,4431C6865,4778 6964,5122 7250,5122C7405,5122 7513,5062 7606,4945L7606,4134L7606,4135ZM7715,5303C7646,5303 7622,5280 7622,5216L7622,5129C7490,5247 7362,5325 7169,5328L7162,5328C6659,5328 6484,4903 6484,4431C6484,4077 6620,3503 7179,3503C7514,3503 7607,3705 7607,3705L7607,3105C7607,2979 7503,2914 7503,2914L7776,2914C7881,2914 7959,2987 7959,3066L7959,5303L7715,5303Z" style="fill:rgb(86,82,82);"/>
                    </g>
                    <g id="g6720">
                        <path id="path6722" d="M9250,4395C9250,4395 9162,4375 9053,4375C8813,4375 8635,4481 8586,4641C8576,4671 8572,4738 8572,4772C8572,4975 8713,5089 8888,5089C8921,5089 8977,5081 9023,5063C9148,5017 9250,4933 9250,4805L9250,4395ZM9414,5303C9398,5303 9328,5307 9299,5274C9272,5248 9272,5209 9272,5177L9272,5075C9167,5230 8990,5335 8723,5329C8306,5317 8213,4989 8213,4808C8213,4744 8219,4622 8315,4492C8463,4284 8769,4216 9043,4216C9162,4216 9250,4233 9250,4233L9250,4050C9250,3985 9250,3874 9185,3796C9130,3731 9026,3682 8844,3682C8559,3682 8371,3843 8371,3843L8406,3627C8406,3627 8599,3496 8908,3496C9168,3496 9346,3567 9451,3673C9572,3799 9602,3915 9602,4147L9602,5303L9414,5303Z" style="fill:rgb(86,82,82);"/>
                    </g>
                    <g id="g6724">
                        <path id="path6726" d="M14287,4135C14287,4035 14274,3889 14195,3805C14140,3746 14051,3705 13925,3705C13583,3705 13543,4160 13543,4405L13543,4431C13547,4778 13645,5122 13932,5122C14088,5122 14194,5062 14287,4945L14287,4134L14287,4135ZM14397,5303C14328,5303 14303,5280 14303,5216L14303,5129C14172,5247 14043,5325 13849,5328L13840,5328C13340,5328 13165,4903 13165,4431C13165,4077 13300,3503 13859,3503C14194,3503 14286,3705 14286,3705L14286,3105C14286,2979 14183,2914 14183,2914L14457,2914C14562,2914 14639,2987 14639,3066L14639,5303L14397,5303Z" style="fill:rgb(86,82,82);"/>
                    </g>
                    <g id="g6728">
                        <path id="path6730" d="M16904,3542C16972,3542 17006,3574 17006,3633L17006,3771C17101,3615 17272,3516 17507,3516C17691,3516 17815,3558 17924,3677C18039,3806 18069,3964 18069,4180L18069,5304L17858,5304C17769,5304 17717,5243 17717,5159L17717,4142C17717,3828 17623,3739 17404,3739C17223,3739 17026,3861 17026,4049L17026,5305L16676,5305L16676,3696C16676,3572 16579,3544 16579,3544L16903,3544L16904,3542Z" style="fill:rgb(86,82,82);"/>
                    </g>
                    <g id="g6732">
                        <path id="path6734" d="M1454,5315C1312,5334 1227,5341 1089,5341C727,5341 497,5232 322,5061C66,4807 0,4385 0,4121C0,3908 36,3490 378,3168C536,3020 782,2894 1151,2894C1480,2894 1638,2988 1638,2988L1699,3206C1686,3200 1516,3102 1233,3102C652,3102 408,3501 408,4122C408,5061 865,5135 1124,5135C1308,5135 1382,5106 1382,5106L1382,4173L1180,4173C1044,4173 986,4194 986,4194L1015,4005L1761,4005L1761,5248C1639,5280 1574,5299 1452,5315L1454,5315Z" style="fill:rgb(86,82,82);"/>
                    </g>
                    <g id="g6736">
                        <path id="path6738" d="M18683,4423C18683,4423 18772,4442 18881,4442C19272,4442 19361,4250 19379,4028C19394,3830 19341,3633 19035,3671C18757,3706 18683,3887 18683,4113C18683,4300 18684,4423 18684,4423M19210,3497C19627,3527 19720,3838 19720,4018C19720,4083 19714,4205 19618,4334C19470,4543 19164,4610 18891,4610C18772,4610 18684,4594 18684,4594L18684,4757C18684,5065 18848,5148 19119,5144C19422,5140 19662,4953 19662,4953L19628,5169C19628,5169 19353,5329 19043,5329C18783,5329 18587,5260 18483,5152C18354,5018 18332,4838 18332,4606L18332,4221C18332,3893 18467,3444 19210,3497Z" style="fill:rgb(86,82,82);"/>
                    </g>
                </g>
            </g>
        </g>
    </g>
</svg>
